X:2
T: Das juengere Hildebrandslied
N: Q0001A
O: Mitteleuropa, Deutschland
R: Ballade, Kampf
M: none
L: 1/16
K: D
D8 | =F4F4G4G4 | A8A8z4
A4A4 | A8A4=c4A4 | =c4B2A2e4B2A2A8z4
A4 | A4B4=c4A4 | _B8A4
A4 | G4=F4A4A4 | G8=F8z4
F4 | =F8G4A8A4 | _B8A4
A4 | G4=F4F6E2 | D4G6=F2E2D2 | E4=C4z8
A2G2A2_B2 | =c8c4A8=F4 | G2A2_B2AGA4
A4 | G4=F4D2E2F2G2 | A6G2=F4E2D2E8 | D12

@@@ Tune index: 631
